color safe_mix(color oneColor, color otherColor, float mixValue)
{
    return mix(oneColor, otherColor, clamp(mixValue, 0, 1));
}


float fract (float in)
{
return in - floor(in);
}


float my_function(float in)
{
return abs(sin(6.28 * in));
}


shader myShader
(
color A = color(0,0,0),
color B = color(1,1,1),
float Scale = 50.0,
output color result = 0
)
{

point uv = point(u,v,0);
point ptn = uv / Scale;

float f = my_function(ptn[0]) * my_function(ptn[1]);

result = safe_mix(A,B, f);
}